X:1
T:Title
%%score { ( 1 4 ) | ( 2 3 ) }
L:1/8
Q:1/4=100
M:6/8
K:Bb
V:1 treble nm="Grand Piano"
V:4 treble 
V:2 bass 
V:3 bass 
V:1
 [DF]2 [DF] [EG][DF][_D=E] | [DF]3 [DB]3 | [Fd]2 [Fd] [Ac][GB][EG] | [DF]6 | %4
w: J.~Lincoln~Hall * * * *||||
 [DF]2 [DF] [EG][DF][_D=E] | [DF]3 B3 | [=Ec]2 [Ed] [Ec][Ec][EG] | c6 | F2 F FGA | [DB]3 [DF]3 | %10
w: ||||||
 [Ec]3 [EF]3 | [Dd]3 .[B,FB]3 | [B,GB][B,GB][GB] [GB][FA][EG] | [DF]3 [FB]3 | %14
w: ||||
 [=Ec]2 [Ed] [Ec]2 [EG] | c6 | F2 F FGA | [DB]3 [DF]3 | [Ec]3 [EF]3 | [Dd]3 .[B,FB]3 | %20
w: ||||||
 [B,GB]2 [GB] [GB][FA]G | FGA Bcd | [Ge]3 .[CFA]3 | B-[FB-][EB-] [DB]3 |] %24
w: ||||
V:2
 [B,,B,]2 [B,,B,] [B,,B,][B,,B,][B,,B,] | [B,,B,]3 [B,,B,]3 | [B,,B,]2 [B,,B,] [E,B,][E,B,][E,B,] | %3
 [B,,B,]6 | [B,,B,]2 [B,,B,] [B,,B,][B,,B,][B,,B,] | [B,,B,]3 [B,D]3 | %6
 [C,B,]2 [C,B,] [C,B,][C,B,][C,B,] | [F,A,E]6 | [F,A,]2 [F,A,] [F,A,][F,B,=E][F,C_E] | %9
 [B,,B,]3 [B,,B,]3 | [F,A,]3 [F,A,]3 | [B,,B,]3 z2 _A | E,E,[E,E] [E,E][E,E][E,B,] | %13
 [B,,B,]3 [D,B,]3 | [C,B,]2 [C,B,] [C,B,]2 [C,B,] | [F,A,F]6 | %16
 [F,A,]2 [F,A,] [F,A,][F,B,=E][F,C_E] | [B,,B,]3 [B,,B,]3 | [F,A,]3 [F,A,]3 | [B,,B,]3 z2 _A | %20
 E,2 [E,E] [E,E][E,E][E,B,E] | [F,B,D][F,B,D][F,B,D] [F,B,D][F,B,E][F,B,F] | [F,A,]3 z2 E | %23
 z A,G, F,3 |] %24
V:3
 x6 | x6 | x6 | x6 | x6 | x6 | x6 | x6 | x6 | x6 | x6 | z3 D,3 | x6 | x6 | x6 | x6 | x6 | x6 | x6 | %19
 z3 D,3 | x6 | x6 | z3 F,3 | B,,6 |] %24
V:4
 x6 | x6 | x6 | x6 | x6 | x6 | x6 | x6 | x6 | x6 | x6 | x6 | x6 | x6 | x6 | x6 | x6 | x6 | x6 | %19
 x6 | x6 | x6 | x6 | .[B,D]3 z3 |] %24

